X:53
T:College Hornpipe. JMT.053
M:C
L:1/8
Q:1/2=90
S:J.Moore,Tyneside,1841.(39b)
R:.Hornpipe
O:England
A:Northumbria
N:MS has crotchets here,and semi quavers at the bar end,but they don’t ad
N:d up.
Z:vmp.Chris Partington
K:D
dc|d2D2D2AG|FAd2d2(3fed|e2E2E2ed|”NB”cea4ga|!
bagf agfe|(gf)ge dcBA|Bdce dfeg|f2d2d2:|!
|:AG|FAdA FAdA|B2G2G2BA|GBec GBed|c2A2A2dc|!
d2(b2b)agf|g-fge dcBA|Bdce dfeg|f2d2d2:|

